dist/assets/img/models/Hit.svg

<svg width="32" height="12" viewBox="0 0 32 12" fill="none" xmlns="http://www.w3.org/2000/svg">
<path d="M0.100098 0.17627V11.6209H2.62043V6.68399H7.25976V11.6209H9.78009V0.17627H7.25976V4.56818H2.62043V0.17627H0.100098Z" fill="white"/>
<path d="M15.2094 0.17627V11.6209H17.7297V0.17627H15.2094Z" fill="white"/>
<path d="M25.6908 2.29208V11.6209H28.2111V2.29208H31.6465V0.17627H22.2554V2.29208H25.6908Z" fill="white"/>
</svg>

<svg width="32" height="12" viewBox="0 0 32 12" fill="none" xmlns="http://www.w3.org/2000/svg"><path d="M.1.176v11.445h2.52V6.684h4.64v4.937h2.52V.176H7.26v4.392H2.62V.176H.1zm15.11 0v11.445h2.52V.176h-2.52zm10.48 2.116v9.329h2.521V2.292h3.436V.176h-9.392v2.116h3.436z" fill="#fff"/></svg>
